Gruvbox-Plus-Dark/actions/22/view-financial-category-expense.svg

<svg width="22" height="22" version="1.1" xmlns="http://www.w3.org/2000/svg">
  <defs>
    <style type="text/css">.ColorScheme-Text { color:#ebdbb2; } .ColorScheme-Highlight { color:#458588; }</style>
  </defs>
  <path class="ColorScheme-Text" d="m4.375 4c-0.2077 0-0.375 0.1673-0.375 0.375v1.25c0 0.2077 0.1673 0.375 0.375 0.375h1.25c0.2077 0 0.375-0.1673 0.375-0.375v-1.25c0-0.2077-0.1673-0.375-0.375-0.375zm3.625 0v2h10v-2zm-3.625 4c-0.2077 0-0.375 0.1673-0.375 0.375v1.25c0 0.2077 0.1673 0.375 0.375 0.375h1.25c0.2077 0 0.375-0.1673 0.375-0.375v-1.25c0-0.2077-0.1673-0.375-0.375-0.375zm3.625 0v2h10v-2zm-3.625 4c-0.2077 0-0.375 0.1673-0.375 0.375v1.25c0 0.2078 0.1673 0.375 0.375 0.375h1.25c0.2077 0 0.375-0.1672 0.375-0.375v-1.25c0-0.2077-0.1673-0.375-0.375-0.375zm3.625 0v2h5v-2zm-3.625 4c-0.2077 0-0.375 0.1672-0.375 0.375v1.25c0 0.2078 0.1673 0.375 0.375 0.375h1.25c0.2077 0 0.375-0.1672 0.375-0.375v-1.25c0-0.2078-0.1673-0.375-0.375-0.375zm3.625 0v2h5v-2zm7-2.949c-0.5523 0-1 0.4477-1 1s0.4477 1 1 1 1-0.4477 1-1-0.4477-1-1-1zm4 0.05469c-1.162 0.2373-1.998 1.259-2 2.445 1.29e-4 1.188 0.8361 2.212 2 2.449v-1.037c-0.5986-0.2116-0.9991-0.7772-1-1.412 8.91e-4 -0.6349 0.4014-1.2 1-1.412zm-4 2.945c-0.5523 0-1 0.4477-1 1s0.4477 1 1 1 1-0.4477 1-1-0.4477-1-1-1z" fill="currentColor"/>
</svg>

<svg width="22" height="22" version="1.1" xmlns="http://www.w3.org/2000/svg">
  <defs>
    <style type="text/css">.ColorScheme-Text { color:#ebdbb2; } .ColorScheme-Highlight { color:#458588; } .ColorScheme-NegativeText { color:#fb4934; }</style>
  </defs>
  <path class="ColorScheme-Text" d="M 4.375,4 C 4.1673,4 4,4.1673 4,4.375 v 1.25 C 4,5.8327 4.1673,6 4.375,6 h 1.25 C 5.8327,6 6,5.8327 6,5.625 V 4.375 C 6,4.1673 5.8327,4 5.625,4 Z M 8,4 V 6 H 18 V 4 Z M 4.375,8 C 4.1673,8 4,8.1673 4,8.375 v 1.25 C 4,9.8327 4.1673,10 4.375,10 h 1.25 C 5.8327,10 6,9.8327 6,9.625 V 8.375 C 6,8.1673 5.8327,8 5.625,8 Z M 8,8 v 2 H 18 V 8 Z M 4.375,12 C 4.1673,12 4,12.1673 4,12.375 v 1.25 C 4,13.8328 4.1673,14 4.375,14 h 1.25 C 5.8327,14 6,13.8328 6,13.625 v -1.25 C 6,12.1673 5.8327,12 5.625,12 Z M 8,12 v 2 h 3 V 12 Z M 4.375,16 C 4.1673,16 4,16.1672 4,16.375 v 1.25 C 4,17.8328 4.1673,18 4.375,18 h 1.25 C 5.8327,18 6,17.8328 6,17.625 v -1.25 C 6,16.1672 5.8327,16 5.625,16 Z M 8,16 v 2 h 3 v -2 z" fill="currentColor"/>
  <path class="ColorScheme-NegativeText" d="m19 15-3.489 3v-2h-2.511v-2h2.511v-2z" fill="currentColor"/>
</svg>
